X:1
T:The Modiewark
M:6/8
L:1/8
K:Bb
 B|F-D B,D-E F| G2 C C2 B|F-D B,D-E F|
M:9/8
 G2 G, G,3 z2 B|
M:6/8
F-D B,D-E F|G-F ED-C B,|E-D C D2 ^F|
M:9/8
 G2 G, G,3 z2 A|
M:6/8
B-c BB-A G|c-d c cBA|B-A B cBc| d/2 d3/2 G G2 A|B-c BB-A G|c-d cc-B A|\
B-A G D2 ^F| G2 G, G,2||
